X: 78
T: Il ne m'en chault
N: Derived from Ock3006-Il_ne_men_chault.krn
C: Johannes Ockeghem
%%abc-version 2.0
%%abcx-abcm2ps-target-version 5.9.1 (29 Sep 2008)
%%abc-creator hum2abc beta
%%abcx-conversion-date 2019/02/17 07:26:16
%%abc-edited-by Jesse Rodin
%%abc-edited-by Chris Gage 06-25-2012
%%abcx-initial-encoding-date 2012/08/16/
%%humdrum-veritas 2336760145
%%humdrum-veritas-data 2032317904
%%linebreak <none>
%%barnumbers 0
L: 1/4
M: 2/1
Q: 1/2=120
V: 1 clef=treble
V: 2 clef=treble-8
V: 3 clef=bass
K: C
[V:1] A8 | 
[V:2] d8 | 
[V:3] D,8- | 
[V:1] _B4A4 | 
[V:2] d4d2c2 | 
[V:3] D,8- | 
[V:1] F4F4 | 
[V:2] A4A4 | 
[V:3] D,8 | 
[V:1] G4G4 | 
[V:2] _B4_B4 | 
[V:3] G,,8 | 
[V:1] A3_Bc2c2 | 
[V:2] A8 | 
[V:3] D,4C,4 | 
[V:1] A2_B3AGF | 
[V:2] d8 | 
[V:3] D,4G,4 | 
[V:1] E4z2A2- | 
[V:2] c8 | 
[V:3] A,8 | 
[V:1] A2G4F2 | 
[V:2] z8 | 
[V:3] F,2E,4D,2 | 
[V:1] E4D4 | 
[V:2] c4d4 | 
[V:3] A,4_B,4 | 
[V:1] D4F3G | 
[V:2] _B4A4 | 
[V:3] G,3F,D,4 | 
[V:1] A3Bc2B2- | 
[V:2] f4e2d2- | 
[V:3] z2D,2E,2G,2- | 
[V:1] B2A4^G2 | 
[V:2] d2c2B4 | 
[V:3] G,2A,2E,4 | 
[V:1] A4z4 | 
[V:2] A4_B2A2- | 
[V:3] z2F,2G,2F,D,- | 
[V:1] A4_B2A2- | 
[V:2] A2F2G2F2 | 
[V:3] D,C,/B,,/A,,2G,,2D,F,- | 
[V:1] A2F2G2A2- | 
[V:2] D4z4 | 
[V:3] F,G,A,2_B,2A,2 | 
[V:1] A2F2E4 | 
[V:2] d4^c3B | 
[V:3] F,3G,A,4 | 
[V:1] D4E2G2- | 
[V:2] d4G3A | 
[V:3] D,4C,4 | 
[V:1] G2F2E2D2 | 
[V:2] _B4c2_B2 | 
[V:3] z2D,2A,,2_B,,2 | 
[V:1] C2D4_B,2 | 
[V:2] A2_B4G2 | 
[V:3] C,2_B,,2G,,4 | 
[V:1] !fermata!A,8 | 
[V:2] !fermata!F8 | 
[V:3] !fermata!D,8 | 
[V:1] z8 | 
[V:2] _B8 | 
[V:3] D,8 | 
[V:1] z8 | 
[V:2] c4c4 | 
[V:3] _E,4E,4 | 
[V:1] F8 | 
[V:2] d8 | 
[V:3] D,8 | 
[V:1] G4G4 | 
[V:2] G4_B4 | 
[V:3] D8 | 
[V:1] A4D4 | 
[V:2] A4G4 | 
[V:3] C4_B,4 | 
[V:1] F4E4 | 
[V:2] z2d4^c2 | 
[V:3] A,2F,2G,2A,2 | 
[V:1] D4z4 | 
[V:2] d4f4 | 
[V:3] D,4z2D,2 | 
[V:1] C4_B,2D2- | 
[V:2] e4d4- | 
[V:3] E,3F,G,3D, | 
[V:1] D2_B,2A,4 | 
[V:2] d4c4 | 
[V:3] F,2G,2A,2F,2 | 
[V:1] G,4G,4 | 
[V:2] _B2d4_B2 | 
[V:3] G,2_B,4A,G, | 
[V:1] C4_B,3C | 
[V:2] A4G4 | 
[V:3] F,3E,G,3C, | 
[V:1] D3_ED2F2 | 
[V:2] _B2c2d2cd | 
[V:3] G,4F,2D,2 | 
[V:1] G2A3G/A/_B2 | 
[V:2] _e2d4g2 | 
[V:3] C,2F,3E,/F,/G,2 | 
[V:1] A2d2cA_B2 | 
[V:2] f3de2d2 | 
[V:3] A,2_B,2A,2D,2 | 
[V:1] c2_B2AA2G/F/ | 
[V:2] G2d3cd2 | 
[V:3] _E,2D,2F,4 | 
[V:1] EDG4^F2 | 
[V:2] G3_BA4 | 
[V:3] G,4D,4 | 
[V:1] G8 |]  
[V:2] G8 |]  
[V:3] G,,8 |]  



